X:974
T:The Boy from the Mountain
N:"Collected by Dillon"
B:O'Neill's 974
Z:Transcribed by Dan G. Petersen, dangp@post6.tele.dk
M:6/8
L:1/8
K:D
F2~FG2~G|A2D GED|F2~FG2~G|Adc dcA/G/|
F2~FG2~G|A2A Ade|gfed cAG|1 Adc dcA/G/:|2 Adc d2||
3ABc|d2e ef2g|Te2d cAG|d2e ef2g|f/g/af gec|
d2e ef2g|e2d cde|fed cAG|ABc d23ABc|
d2e ef2g|Te2d cAG|d2e ef2g|f/g/af gec|
d2e fed/f/|edc/e/ cd2e|efed BcAG|Adc dcA/G/|]
